X: 6
T: The Sailor On The Rock
R: reel
M: 4/4
L: 1/8
K: Dmaj
defd BAFB|ADED FAAB|defd BAFB|1 ABdf eB~B2:|2 ABdf efde||:
faag fedf|~g3a bgeg|faag fedB|1ABdf efde:|2ABdf efdA|


Tune 765	Setting 765

